!! 00027] TT[TB
!! Eigene Aufnahme, Guangzhou, 5.5.87
!!!OTL: Ni muo xian wo geng tian lang
!!!ARE: Asia, China,ÿGuangdong, Meixian
!! Ethnic Group: Han, Kejia
!! MM, handschriftlich, Quelle S. Bandprotokoll)
!!!SCT: C0967
!!!YEM: Copyright 1995, estate of Helmut Schaffrath.
**kern
*ICvox
*Ivox
*M2/4
*k[f#c#]
*D:
{8B
8B
4e
=1
8f#
8f#
8.e
16f#
=2
8e
16e
16d
4B
=3
8d
4e
8f#}
=4
{16e
16f#
4e
8d
=5
8B
8d
4B
=6
4.e
8d
=7
8B
4d
8r}
=8
{8B
16B
16d
4e
=9
8f#
16f#
16d
8.e
16f#
=10
8e
8d
4B
=11
8B
4d
16e
16f#}
=12
{8e
8d
4B
=13
8d
16B
16d
8.e
16f#
=14
4.e
8d
=15
8B
4.B}
==
!!!AGN: Shange, Kejia shange. Xin minge
!! Die Saengerin Lei Huilan ist Angehoerige der Zhuang Minderheit und
!!    studiert an der Guangzhouer Musikhochschule.
!!    Aufgenommen am 5.5.87
!!    Schwer zu lesen! Grundtonangabe nicht eindeutig lesbar, auch P, ??),
!!    Taktangabe fehlt, stattdessen Tempoangabe, 04=104).
!!    Vereinzelt Verzierungen. Vor-, Zwischen- und Nachspiel weggelassen.
!!!ONB: ESAC (Essen Associative Code) Database: CHINA
!!!AMT: simple duple
!!!AIN: vox
!!!EED: Helmut Schaffrath
!!!EEV: 1.0
*-
